storage/app/icons/phosphoricons/bold/cursor-text-bold.svg

<svg xmlns="http://www.w3.org/2000/svg" fill="currentColor" viewBox="0 0 256 256"><path d="M188 208a12 12 0 0 1-12 12h-16a43.86 43.86 0 0 1-32-13.85A43.86 43.86 0 0 1 96 220H80a12 12 0 0 1 0-24h16a20 20 0 0 0 20-20v-36h-12a12 12 0 0 1 0-24h12V80a20 20 0 0 0-20-20H80a12 12 0 0 1 0-24h16a43.86 43.86 0 0 1 32 13.85A43.86 43.86 0 0 1 160 36h16a12 12 0 0 1 0 24h-16a20 20 0 0 0-20 20v36h12a12 12 0 0 1 0 24h-12v36a20 20 0 0 0 20 20h16a12 12 0 0 1 12 12"/></svg>

<svg xmlns="http://www.w3.org/2000/svg" viewBox="0 0 256 256" fill="currentColor"><path d="M188,208a12,12,0,0,1-12,12H160a43.86,43.86,0,0,1-32-13.85A43.86,43.86,0,0,1,96,220H80a12,12,0,0,1,0-24H96a20,20,0,0,0,20-20V140H104a12,12,0,0,1,0-24h12V80A20,20,0,0,0,96,60H80a12,12,0,0,1,0-24H96a43.86,43.86,0,0,1,32,13.85A43.86,43.86,0,0,1,160,36h16a12,12,0,0,1,0,24H160a20,20,0,0,0-20,20v36h12a12,12,0,0,1,0,24H140v36a20,20,0,0,0,20,20h16A12,12,0,0,1,188,208Z"/></svg>
